X:1
T:6 Gedichte, Op.8
T:Trennung
T:der Frau Emilie von Henning geb. Krutisch hochachtungsvoll zugeeignet
T:5. Trennung
T:Johanna Kinkel
T:6 Gedichte, Op.8 
T:Emanuel Geibel
T:Creative Commons copyright waiver (CC0 1.0 Universal)
C:Johanna Kinkel (originally published under the name Johanna Mathieux)
Z:Emanuel Geibel
Z:Creative Commons copyright waiver (CC0 1.0 Universal)
%%score ( 1 2 )
L:1/8
Q:1/4=71
M:4/4
K:Ab
V:1 treble nm="Singstimme\nVoice"
V:2 treble 
V:1
"^Adagio" z | F2 F G A2 A A | B2{cB} AB c2 z2 | =d2 d d d2 G2 | x4 z4 | (c2{_dc} B) c d2 d c | %6
w: |In mei- nem Gar- ten die|Nel- * * ken|mit ih- rem Pur- pur-||müs- sen nun al- le ver-|
w: |Auf mei- nem Heer- de die|Flam- * * men,|die ich be- wacht so||san- ken in A- sche zu-|
w: |Welt _ ist mir _ ver-|dor- * * ben,|mich grüsst nicht Blu- me||Herz _ ist lan- ge ge-|
 (B2{cB} AB) c2 z2 | z4 z2 z G | c6 =E2 | F4 z4 | z8 | z8 | z8 | z4 z2 z :| %14
w: wel- * * ken,|denn|Du bist|fern.|||||
w: sam- * * men,|denn|Du bist|fern.|||||
w: stor- * * ben,|denn|Du bist|fern.|||||
V:2
 C | F3 G A3 x | x8 | x4 x2 G G | c4 z2 z c | x8 | x8 | x8 | x8 | x8 | x8 | x8 | x8 | x7 :| %14
w: ||||stern *||||||||||
w: ||||gern, *||||||||||
w: Die|||* nicht|Stern. Mein||||||||||

